modules/mod-page-builder/libs/views/manager/img/type-plugin.svg

<svg xmlns="http://www.w3.org/2000/svg" width="14" height="16" viewBox="0 0 14 16">
 <path fill-rule="evenodd" d="M14 6V5h-4V3H8v1H6c-1.03 0-1.77.81-2 2L3 7c-1.66 0-3 1.34-3 3v2h1v-2c0-1.11.89-2 2-2l1 1c.25 1.16.98 2 2 2h2v1h2v-2h4V9h-4V6h4z"/>
</svg>

<svg width="14px" height="16px" viewBox="0 0 14 16" version="1.1" xmlns="http://www.w3.org/2000/svg" xmlns:xlink="http://www.w3.org/1999/xlink">
    <g id="Octicons" stroke="none" stroke-width="1" fill="none" fill-rule="evenodd">
        <g id="plug" fill="#000000">
            <path d="M14,6 L14,5 L10,5 L10,3 L8,3 L8,4 L6,4 C4.97,4 4.23,4.81 4,6 L3,7 C1.34,7 0,8.34 0,10 L0,12 L1,12 L1,10 C1,8.89 1.89,8 3,8 L4,9 C4.25,10.16 4.98,11 6,11 L8,11 L8,12 L10,12 L10,10 L14,10 L14,9 L10,9 L10,6 L14,6 L14,6 Z" id="Shape"></path>
        </g>
    </g>
</svg>
